wifi-cog.svg

<svg fill="currentColor" viewBox="0 0 24 24"><path d="M12 12c-2.03 0-3.9.67-5.4 1.8l-1.8-2.4C6.81 9.89 9.3 9 12 9s5.19.89 7.2 2.4l-.46.6c-1.08.05-2.11.33-3.01.81A8.9 8.9 0 0 0 12 12m9-3 1.8-2.4C19.79 4.34 16.05 3 12 3S4.21 4.34 1.2 6.6L3 9c2.5-1.88 5.62-3 9-3s6.5 1.12 9 3m-9 6c-1.35 0-2.6.45-3.6 1.2L12 21l.22-.29a6.9 6.9 0 0 1 .95-5.58c-.38-.08-.77-.13-1.17-.13m11.8 5.4c.1 0 .1.1 0 .2l-1 1.7c-.1.1-.2.1-.3.1l-1.2-.4c-.3.2-.5.3-.8.5l-.2 1.3c0 .1-.1.2-.2.2h-2c-.1 0-.2-.1-.3-.2l-.2-1.3c-.3-.1-.6-.3-.8-.5l-1.2.5c-.1 0-.2 0-.3-.1l-1-1.7c-.1-.1 0-.2.1-.3l1.1-.8v-1l-1.1-.8c-.1-.1-.1-.2-.1-.3l1-1.7c.1-.1.2-.1.3-.1l1.2.5c.3-.2.5-.3.8-.5l.2-1.3c0-.1.1-.2.3-.2h2c.1 0 .2.1.2.2l.2 1.3c.3.1.6.3.9.5l1.2-.5c.1 0 .3 0 .3.1l1 1.7c.1.1 0 .2-.1.3l-1.1.8v1zM20.5 19c0-.8-.7-1.5-1.5-1.5s-1.5.7-1.5 1.5.7 1.5 1.5 1.5 1.5-.7 1.5-1.5"/></svg>

<svg  viewBox="0 0 24 24" fill="currentColor"><path  d="M12 12C9.97 12 8.1 12.67 6.6 13.8L4.8 11.4C6.81 9.89 9.3 9 12 9S17.19 9.89 19.2 11.4L18.74 12C17.66 12.05 16.63 12.33 15.73 12.81C14.6 12.29 13.33 12 12 12M21 9L22.8 6.6C19.79 4.34 16.05 3 12 3S4.21 4.34 1.2 6.6L3 9C5.5 7.12 8.62 6 12 6S18.5 7.12 21 9M12 15C10.65 15 9.4 15.45 8.4 16.2L12 21L12.22 20.71C12.08 20.16 12 19.59 12 19C12 17.57 12.43 16.24 13.17 15.13C12.79 15.05 12.4 15 12 15M23.8 20.4C23.9 20.4 23.9 20.5 23.8 20.6L22.8 22.3C22.7 22.4 22.6 22.4 22.5 22.4L21.3 22C21 22.2 20.8 22.3 20.5 22.5L20.3 23.8C20.3 23.9 20.2 24 20.1 24H18.1C18 24 17.9 23.9 17.8 23.8L17.6 22.5C17.3 22.4 17 22.2 16.8 22L15.6 22.5C15.5 22.5 15.4 22.5 15.3 22.4L14.3 20.7C14.2 20.6 14.3 20.5 14.4 20.4L15.5 19.6V18.6L14.4 17.8C14.3 17.7 14.3 17.6 14.3 17.5L15.3 15.8C15.4 15.7 15.5 15.7 15.6 15.7L16.8 16.2C17.1 16 17.3 15.9 17.6 15.7L17.8 14.4C17.8 14.3 17.9 14.2 18.1 14.2H20.1C20.2 14.2 20.3 14.3 20.3 14.4L20.5 15.7C20.8 15.8 21.1 16 21.4 16.2L22.6 15.7C22.7 15.7 22.9 15.7 22.9 15.8L23.9 17.5C24 17.6 23.9 17.7 23.8 17.8L22.7 18.6V19.6L23.8 20.4M20.5 19C20.5 18.2 19.8 17.5 19 17.5S17.5 18.2 17.5 19 18.2 20.5 19 20.5 20.5 19.8 20.5 19Z"/></svg>
